X: 47
M: 2/4
L: 1/16
K: C
c2c2c2 ec | {^f}g2{f}g2 ag=fe |\
f2d2d2 gf | efge c3G |\
c2c2 ecec | {^f}g2{f}g2 ag=fe |
ecfd ecdB | c2B2c2 :|\
|: GF |\
EGce gege | FAcf a2GF |\
EGce geag | fedc BAGF |
EGce gege | FAcf a2gf |\
egfe dcBd | c2e2c2 :|\
|: dc |\
c2ce d2df | e2eg f3a |\
gece fdBd | c2e2c2 H:|

